X: 1
T: Lango Lee
R: jig
Z: 2006 John Chambers <jc:trillian.mit.edu>
B: Pinewoods Alternates
M: 6/8
L: 1/8
K: A
|: "A"A3 {AB}c3 | "D"B>AB "E7"cAF \
| "A"E>FA "D"A2f | "A"edc "E7"B2A :|\
  "A"c>de ef=g | "D"f>ed "E7"{d}cBA |
| "A"c>de efg | "E7"g3 {fg}a2A \
|  "A"Ace "D"agf | "A"edc "E7"B2A \
| "A"AEF "F#m"AEF | "D"Adc "E7"B2A |]
